wp-content/uploads/2023/10/Vector-25.svg

<svg xmlns="http://www.w3.org/2000/svg" width="224" height="438" viewBox="0 0 224 438" fill="none"><path d="M155.323 61.3057C111.299 20.1545 56.2677 0.0746849 -8.11819 0.570483C-72.5042 1.06628 -127.067 21.9724 -171.147 63.9224C-214.676 105.735 -236.468 157.876 -236 220.925C-235.533 283.974 -212.915 335.647 -168.753 376.798C-124.04 417.95 -69.1747 438.03 -4.76125 437.396C59.6522 436.762 114.188 415.994 157.745 374.182C201.769 332.342 223.589 280.2 223.121 217.179C222.653 154.158 200.008 102.457 155.323 61.3057ZM-4.78879 435.908C-117.932 436.79 -134.606 311.959 -135.294 219.961C-135.927 136.997 -123.985 2.93932 -8.11819 2.0579C104.502 1.20403 121.727 126.448 122.415 217.978C123.048 300.418 110.528 434.972 -4.78879 435.853V435.908Z" fill="#E9EDF3"></path></svg>

<svg xmlns="http://www.w3.org/2000/svg" width="224" height="438" fill="none"><path d="M155.323 61.306C111.299 20.155 56.268.075-8.118.57c-64.386.496-118.949 21.402-163.029 63.352-43.529 41.813-65.321 93.954-64.853 157.003.467 63.049 23.085 114.722 67.247 155.873 44.713 41.152 99.578 61.232 163.992 60.598 64.413-.634 118.949-21.402 162.506-63.214 44.024-41.84 65.844-93.982 65.376-157.003-.468-63.021-23.113-114.722-67.798-155.873ZM-4.789 435.908c-113.143.882-129.817-123.949-130.505-215.947-.633-82.964 11.309-217.022 127.176-217.903 112.62-.854 129.845 124.39 130.533 215.92.633 82.44-11.887 216.994-127.204 217.875v.055Z" fill="#E9EDF3"/></svg>
